X: 6482
T: Cat In The Hopper, The
R: jig
M: 6/8
K: Gdorian
|:DGA B2c|AFF F2A|G3 g2e|fdd d2e|
fag fed|dcA B2c|d_ed d2c|1 dBG G2F:|2 dBG G2f||
|:g3 gab|a2f fga|g3 gfe|fdd d2e|
fag fed|dcA B2c|d3 d2c|1 dBG G2f:|2 dBG G2F||

